X:1
T:Nocturne 0p9.1
T:Chopin arr.Dempsey
%%score ( 1 2 )
L:1/8
Q:1/4=80
M:6/4
K:D
V:1 treble-8 nm="Guitar"
V:2 treble-8 
V:1
 z4 z2 bc'd'^abg | f2 f2 f2 f2 gfec | d4 B2 bc'd'^a (3c'bg | %3
"^CVII............................" fb=agfe dc^Bc (3f^e=e | d4 B2 b2 b2 b2 | a8- a3 g | %6
 f6 e2 fed_B | A4 d2 e2 fede | f6 bc'd'^a{/c'}bg | f2 f2 f2 f2 gfec | %10
 d4 B2 bc' d'(3^a/b/d'/{/b} (3c'bg | (3ff'=f' (3e'd'c' (3bgf dc^Bc (3f^e=e | d4 B2 b2 b2 b2 | %13
 b4 ^d2 e2 ^de g>f | f4 ^e2 f{/=e}f^g^abc' | d'4 bB d4 c2 | f'3 d'bB d4 c2 | d'3 bbB =c4 _B2 | %18
 B6 z2 z4 | f6 =f6 | e^f e2 c2 B2 A4 | B2 c4 d2 e4 | fg b2 a2 f6 | f6 =f6 | _e=f e2 _B2 =c6 | %25
 _e=f e2 _B2 =B6 | ^c6 d6 | e6 f6 | g2 fgab b2 e2 a2 | a2 bagf f2 gfed | e6 e4 =f2 | f6 =f6 | %32
 _e=f e2 _B2 =c6 | _e=f e2 _B2 =B6 | ^c6 d6 | %35
"^CV........................................................................etc......." [=cf]4 ef [ce]4 d2 | %36
"^........................................................................................................................................................................................................" [=ca]3 bab [ca]3 z z2 | %37
 [=cf]4 ef [ce]2 c2 d2 | [=ca]babab [ca]6 | [d'f']3 e'=c'a [=cf]4 [cg]2 | [=cgb]6 [fa]6 | %41
 [df]3 e=cA [cf]4 [cg]2 | [=cgb]6 [fa]6 | z12 | z6 bc'd'^abg | f2 f2 f2 f2 gfec | %46
 d4 B2 bc'd'^a (3c'bg | ff'^e'=e'd'b ge (3g=c^c (3f^e=e | d4 B2 b2 b2 b2 | b4 ^d2 (3efe ^de g>f | %50
 f4 ^e2 f2{/=ef} ^g^abc' | d'4 (3bgB d4 c2 | f'3 d' (3bgB d4 c2 | d'2- (3d'gB (3d'gB =c4 _B2 | %54
 =B6 =c4 _B2 | =B6 !1!=c/e/!4!g/!4!=c'/ e'3 _b | =B6 [eg]4 z2 | %57
{/!1!e'-} !2!!3![=c'g']!1![c'e']{/_b}[gc']{/=c'}[g_b]!0![eg][=ce] [_Bc][G_B][EG][=CE]{/_B,}C[_B,EG] | %58
 [FB^d]6 [FBd]2 [FBd]2 [Bd]2 | [B,FB^d]6 z2 z4 |] %60
V:2
 z6 z2 z4 | B,FBFB,F BFE^A F2 | B,FB,FB,F B,FdB B,2 | B,FB,FB,F BFE^A F2 | B,FB,FB,F BFdFBF | %5
 DA,FADA [G,d]DB[Gc][Bd]D | DAdFdD G,D_BG_B,D | DA,FDFD G,D_BGEC | F,C^AFeA B,2 F2 B2 | %9
 B,FBFB,F BFE^A F,2 | B,FB,FB,F B,FdB B,2 | !0!B2 B2 B2 BFE^A F2 | B,FB,FB,F BFdFBF | %13
 BF^DBFB EGEBGE | c^G^EcGc Fc^Aecf | B,FBFgE z FBFE^A | Bf!open!DBGE z FBFE^A | %17
 dGBG=fG EG,=CGE_B, | BFBFBF BFDB,F,E, | DAdADA D^GBGDB | DAGEA,E GECA,EA, | DA,EGCA, DA,EGCA, | %22
 DAeAcA DAdADA | DAdADA D_B,D_ADB, | _E_BE_B,EB, E_AE_A,EA, | _E_BE_B,EB, _AD=F=BFD | %26
 =A=EGBAA, DA,DADB, | A,CEAEA, ^DB,FBF=D | GBEBEB GCEGEA, | FADADA DADADA, | DB,E^GEB, D_B,^C=GcA | %31
 DAdADA D_B,D_ADB, | _E_BE_B,EB, E_AE_A,EA, | _E_BE_B,EB, _AD=F=BFD | =A=EGBAA, DA,DADB, | %35
 DADADA DADADA | DADADA DADADA | DADADA DADADA | DADADA DADADA | DaD z D z DADADA | DADADA DADADA | %41
 DAD z D z DADADA | DADADA DADADA | DAdAD_B, D_BdBDB, | D_BdBDB, z2 d2 f2 | B,FBFB,F BFE^AFF, | %46
 B,FB,FB,F B,FdB B,2 | BfBfBf BF [E^A]2 F2 | B,FB,FB,F BFdFBF | BF^DBFB E2 EBGE | %50
 c^G^EcGc Fc^Aecf | B,FBF F2 B,FBFE^A | Bf!open!DB E2 FB,BFE^A | dGBG =F2 EG,=CGE_B, | %54
 =B,FDFB,D _B,EGEG,_B, | =B,FDF B,2 _B,3 _BeG | =B,FDFB,D _B,GB=ceg | x12 | B,6 B,2 B,2 GF | x12 |] %60

